X: 840
T: Fair and forty
C: anon.
O: Ireland
B: Francis O'Neill: "The Dance Music of Ireland" (1907) no. 840
R: Hornpipe
Z: Transcribed by Frank Nordberg - http://www.musicaviva.com
F: http://www.musicaviva.com/abc/tunes/ireland/oneill-1001/oneill-1001-084
0.abc
M: C|
L: 1/8
K: G
D2|(3.G.G.G BG d2BG|efgf edBd|ceAc BdGB|ABcA GFED|(3.G.G.G BG d2Bd|efgf e
dBd|ceAc BdGB|
cAFA G2::d2|gfga bgdg|edef gdBd|gfga bgdg|edcB A2(Bd)|gfga bgdg|edef gdBG
|DGBd gdBd|cAFA G2:|
W:
W:
W: From Musica Viva - http://www.musicaviva.com
W: the Internet center for free sheet music downloads.


